X: 20459
T: John Joe McElroy's
R: barndance
M: 4/4
K: Dmajor
|:(3efg|a2 c'>c' f2 a>f|d2 f>d A2 A>B|A>Bc>d e>fg>a|b2 a2 f>^ef>g|
a2 c'2 f>fa>f|d>df>d A2- A>B|A2 (3Bcd e2 (3fga|f2 d2 d2:|
|:d>c|B2 B>^A B2 d>e|f>ae>a (3faf B2|f2 (3efe d2 (3cdc|B>dc>A B<AF>A|
B>cB<A B2 (3cde|(3faa e>c (3faf B>e|(3faf (3efe (3ded c>d|B>dc>A B2:|

